assets/features/channel/europe-and-america/american-express.svg

<svg width="80" height="80" viewBox="0 0 80 80" fill="none" xmlns="http://www.w3.org/2000/svg">
<rect width="80" height="80" rx="8" fill="#016FD0"/>
<path d="M35.895 68.4V43.8149H62.0242L64.8276 47.4558L67.7239 43.8149H79.998V48.9962L74.1073 55.8687L79.998 62.7412V68.4002H67.5022L64.7027 64.6812L61.8603 68.4002L35.895 68.4Z" fill="white"/>
<path d="M26 36.185L36.8012 11.6001H46.9913L50.335 19.266V11.6001H63.0022L64.9928 17.1408L66.9227 11.6001H79.9983V36.1852H45.4817L43.9165 32.3097H39.7426L38.1889 36.185H30.9089H26Z" fill="white"/>
<path d="M39.0559 65.2649V46.8564H54.1299V50.9741H43.7239V54.123H53.8868V57.9985H43.7239V61.2684H54.1299V65.2649H39.0559ZM54.715 65.2649L62.0545 56.1743L54.5402 46.8564H60.3603L64.8354 52.6166L69.3259 46.8564H74.9179L67.5024 56.0607L74.8553 65.2649H69.0364L64.6911 59.5956L60.4515 65.2649H54.715Z" fill="#016FD0"/>
<path d="M53.3987 14.7295V33.1379H58.0182V19.5738L62.9286 33.1379H66.9798L71.8767 19.5738V33.1379H76.4961V14.7295H69.2021L65.0279 26.6253L60.7513 14.7567L53.3987 14.7295Z" fill="#016FD0"/>
<path fill-rule="evenodd" clip-rule="evenodd" d="M38.8868 14.7326L30.9395 33.1411H36.1136L37.58 29.4548H46.1048L47.5635 33.1411H52.8518L44.9117 14.7326H38.8868ZM44.4256 25.4583L41.8271 19.0167L39.2212 25.4583H44.4256Z" fill="#016FD0"/>
</svg>

<svg xmlns="http://www.w3.org/2000/svg" width="80" height="80" fill="none" viewBox="0 0 80 80"><rect width="80" height="80" fill="#016fd0" rx="8"/><path fill="#fff" d="M35.895 68.4V43.815h26.13l2.803 3.64 2.896-3.64h12.274v5.181l-5.89 6.873 5.89 6.872v5.66H67.502l-2.8-3.72-2.842 3.72zM26 36.185 36.801 11.6h10.19l3.344 7.666V11.6h12.667l1.99 5.54 1.93-5.54h13.076v24.585H45.482l-1.565-3.875h-4.174l-1.554 3.875z"/><path fill="#016fd0" d="M39.056 65.265V46.856H54.13v4.118H43.724v3.149h10.163v3.876H43.724v3.27H54.13v3.996zm15.659 0 7.34-9.09-7.515-9.319h5.82l4.475 5.76 4.49-5.76h5.593l-7.416 9.205 7.353 9.204h-5.819l-4.345-5.67-4.24 5.67zM53.399 14.73v18.408h4.62V19.574l4.91 13.564h4.05l4.898-13.564v13.564h4.62V14.73h-7.295l-4.174 11.895-4.277-11.868z"/><path fill="#016fd0" fill-rule="evenodd" d="M38.887 14.733 30.939 33.14h5.175l1.466-3.686h8.525l1.459 3.686h5.288l-7.94-18.408zm5.539 10.725-2.599-6.441-2.606 6.441z" clip-rule="evenodd"/></svg>
